app/assets/images/general/icons/email_footer.svg

<svg width="12" height="8" viewBox="0 0 12 8" fill="none" xmlns="http://www.w3.org/2000/svg">
<path d="M10.7999 -0.000765745H1.19634C0.897033 -0.0165551 0.603248 0.0797368 0.37911 0.26709C0.154973 0.454444 0.0186856 0.717643 0 0.999234V6.99923C0.0202079 7.28029 0.156939 7.54261 0.380723 7.72967C0.604507 7.91673 0.897423 8.01354 1.19634 7.99923H10.7999C11.0988 8.01354 11.3918 7.91673 11.6155 7.72967C11.8393 7.54261 11.9761 7.28029 11.9963 6.99923V0.999234C11.9761 0.718183 11.8393 0.455857 11.6155 0.2688C11.3918 0.081742 11.0988 -0.0150687 10.7999 -0.000765745ZM10.7999 1.99923L5.99963 4.49959L1.19634 1.99923V0.999234L5.99664 3.49959L10.7969 0.999234L10.7999 1.99923Z" fill="#12784A"/>
</svg>

<svg width="12" height="8" fill="none" xmlns="http://www.w3.org/2000/svg"><path d="M10.8 0H1.196A1.18 1.18 0 00.38.266C.155.454.02.717 0 1v6c.02.281.157.544.38.73.225.188.517.285.816.27H10.8a1.18 1.18 0 00.816-.27 1.05 1.05 0 00.38-.73V1a1.052 1.052 0 00-.38-.73A1.185 1.185 0 0010.8 0zm0 2L6 4.5 1.196 2V1l4.8 2.5 4.8-2.5.004 1z" fill="#12784A"/></svg>
